elementary-icon-theme/elementary/panel/22/ubuntuone-client-idle.svg

<?xml version="1.0" encoding="UTF-8" standalone="no"?>
<!-- Created with Inkscape (http://www.inkscape.org/) -->

<svg
   xmlns:dc="http://purl.org/dc/elements/1.1/"
   xmlns:cc="http://creativecommons.org/ns#"
   xmlns:rdf="http://www.w3.org/1999/02/22-rdf-syntax-ns#"
   xmlns:svg="http://www.w3.org/2000/svg"
   xmlns="http://www.w3.org/2000/svg"
   xmlns:xlink="http://www.w3.org/1999/xlink"
   xmlns:sodipodi="http://sodipodi.sourceforge.net/DTD/sodipodi-0.dtd"
   xmlns:inkscape="http://www.inkscape.org/namespaces/inkscape"
   version="1.0"
   width="22"
   height="22"
   id="svg2423"
   sodipodi:version="0.32"
   inkscape:version="0.48.0 r9654"
   sodipodi:docname="ubuntuone-client-idle.svg"
   inkscape:output_extension="org.inkscape.output.svg.inkscape">
  <metadata
     id="metadata12">
    <rdf:RDF>
      <cc:Work
         rdf:about="">
        <dc:format>image/svg+xml</dc:format>
        <dc:type
           rdf:resource="http://purl.org/dc/dcmitype/StillImage" />
      </cc:Work>
    </rdf:RDF>
  </metadata>
  <sodipodi:namedview
     inkscape:window-height="706"
     inkscape:window-width="685"
     inkscape:pageshadow="2"
     inkscape:pageopacity="0.0"
     guidetolerance="10.0"
     gridtolerance="10.0"
     objecttolerance="10.0"
     borderopacity="1.0"
     bordercolor="#666666"
     pagecolor="#ffffff"
     id="base"
     showgrid="false"
     inkscape:zoom="10.375"
     inkscape:cx="21.301205"
     inkscape:cy="14.024096"
     inkscape:window-x="399"
     inkscape:window-y="51"
     inkscape:current-layer="svg2423"
     inkscape:window-maximized="0" />
  <defs
     id="defs2425">
    <linearGradient
       id="linearGradient3587-6-5-3">
      <stop
         id="stop3589-9-2-2"
         style="stop-color:#000000;stop-opacity:1"
         offset="0" />
      <stop
         id="stop3591-7-4-73"
         style="stop-color:#363636;stop-opacity:1"
         offset="1" />
    </linearGradient>
    <linearGradient
       inkscape:collect="always"
       xlink:href="#linearGradient3587-6-5-3"
       id="linearGradient2388"
       gradientUnits="userSpaceOnUse"
       gradientTransform="matrix(0.4100229,0,0,0.5447147,-32.849272,-0.5989154)"
       x1="99.624245"
       y1="8.4432774"
       x2="99.624245"
       y2="34.187016" />
  </defs>
  <path
     style="opacity:0.6;fill:#ffffff;fill-opacity:1;fill-rule:nonzero;stroke:none;stroke-width:1;marker:none;visibility:visible;display:inline;overflow:visible;enable-background:accumulate"
     id="path2419"
     d="M 12.497992,5.0002625 C 10.862048,4.980538 9.3811857,6.0768727 8.6550621,7.4980048 7.8124788,6.9672897 6.7279519,6.8302001 5.8146146,7.2701088 4.5218215,7.8001964 3.7071107,9.3198044 4.0935365,10.682625 c -1.9031724,1.147329 -2.647498,3.782905 -1.650965,5.761593 0.7664987,1.660228 2.6097779,2.681074 4.4214794,2.5434 2.9933808,-0.0085 5.9875941,0.01709 8.9804441,-0.01306 2.193627,-0.117405 4.084741,-2.056448 4.146063,-4.250836 0.133874,-1.947804 -1.169743,-3.870141 -3.024771,-4.478201 0.225565,-2.357895 -1.473588,-4.8783701 -3.895038,-5.2050983 -0.18966,-0.026806 -0.381212,-0.04017 -0.572757,-0.040159 z"
     inkscape:connector-curvature="0" />
  <path
     style="opacity:0.7;fill:url(#linearGradient2388);fill-opacity:1;fill-rule:nonzero;stroke:none;stroke-width:1;marker:none;visibility:visible;display:inline;overflow:visible;enable-background:accumulate"
     id="rect3193"
     d="M 12.497992,4.0002621 C 10.862048,3.9805376 9.3811857,5.0768723 8.6550621,6.4980044 7.8124788,5.9672893 6.7279519,5.8301997 5.8146146,6.2701084 4.5218215,6.800196 3.7071107,8.3198041 4.0935365,9.6826254 2.1903641,10.829954 1.4460385,13.46553 2.4425715,15.444218 c 0.7664987,1.660228 2.6097779,2.681074 4.4214794,2.5434 2.9933808,-0.0085 5.9875941,0.01709 8.9804441,-0.01306 2.193627,-0.117405 4.084741,-2.056448 4.146063,-4.250836 0.133874,-1.947804 -1.169743,-3.8701406 -3.024771,-4.4782006 0.225565,-2.3578958 -1.473588,-4.8783709 -3.895038,-5.2050991 -0.18966,-0.026806 -0.381212,-0.04017 -0.572757,-0.040159 z"
     inkscape:connector-curvature="0" />
</svg>

<?xml version="1.0" encoding="UTF-8" standalone="no"?>
<!-- Created with Inkscape (http://www.inkscape.org/) -->
<svg
   xmlns:dc="http://purl.org/dc/elements/1.1/"
   xmlns:cc="http://creativecommons.org/ns#"
   xmlns:rdf="http://www.w3.org/1999/02/22-rdf-syntax-ns#"
   xmlns:svg="http://www.w3.org/2000/svg"
   xmlns="http://www.w3.org/2000/svg"
   xmlns:xlink="http://www.w3.org/1999/xlink"
   xmlns:sodipodi="http://sodipodi.sourceforge.net/DTD/sodipodi-0.dtd"
   xmlns:inkscape="http://www.inkscape.org/namespaces/inkscape"
   version="1.0"
   width="22"
   height="22"
   id="svg2423"
   sodipodi:version="0.32"
   inkscape:version="0.46"
   sodipodi:docname="ubuntuone-client-idle.svg"
   inkscape:output_extension="org.inkscape.output.svg.inkscape">
  <metadata
     id="metadata12">
    <rdf:RDF>
      <cc:Work
         rdf:about="">
        <dc:format>image/svg+xml</dc:format>
        <dc:type
           rdf:resource="http://purl.org/dc/dcmitype/StillImage" />
      </cc:Work>
    </rdf:RDF>
  </metadata>
  <sodipodi:namedview
     inkscape:window-height="706"
     inkscape:window-width="640"
     inkscape:pageshadow="2"
     inkscape:pageopacity="0.0"
     guidetolerance="10.0"
     gridtolerance="10.0"
     objecttolerance="10.0"
     borderopacity="1.0"
     bordercolor="#666666"
     pagecolor="#ffffff"
     id="base"
     showgrid="false"
     inkscape:zoom="10.375"
     inkscape:cx="4.5301205"
     inkscape:cy="12"
     inkscape:window-x="399"
     inkscape:window-y="51"
     inkscape:current-layer="svg2423" />
  <defs
     id="defs2425">
    <inkscape:perspective
       sodipodi:type="inkscape:persp3d"
       inkscape:vp_x="0 : 12 : 1"
       inkscape:vp_y="0 : 1000 : 0"
       inkscape:vp_z="24 : 12 : 1"
       inkscape:persp3d-origin="12 : 8 : 1"
       id="perspective14" />
    <linearGradient
       id="linearGradient3587-6-5-3">
      <stop
         id="stop3589-9-2-2"
         style="stop-color:#000000;stop-opacity:1"
         offset="0" />
      <stop
         id="stop3591-7-4-73"
         style="stop-color:#363636;stop-opacity:1"
         offset="1" />
    </linearGradient>
    <linearGradient
       x1="99.624245"
       y1="8.4432774"
       x2="99.624245"
       y2="34.187016"
       id="linearGradient2417"
       xlink:href="#linearGradient3587-6-5-3"
       gradientUnits="userSpaceOnUse"
       gradientTransform="matrix(0.4100229,0,0,0.5447147,-31.849506,0.4010842)" />
    <linearGradient
       inkscape:collect="always"
       xlink:href="#linearGradient3587-6-5-3"
       id="linearGradient2388"
       gradientUnits="userSpaceOnUse"
       gradientTransform="matrix(0.4100229,0,0,0.5447147,-32.849272,-0.5989154)"
       x1="99.624245"
       y1="8.4432774"
       x2="99.624245"
       y2="34.187016" />
  </defs>
  <path
     style="opacity:0.6;fill:#ffffff;fill-opacity:1;fill-rule:nonzero;stroke:none;stroke-width:1;stroke-linecap:butt;stroke-linejoin:miter;marker:none;marker-start:none;marker-mid:none;marker-end:none;stroke-miterlimit:4;stroke-dasharray:none;stroke-dashoffset:0;stroke-opacity:1;visibility:visible;display:inline;overflow:visible;enable-background:accumulate"
     id="path2419"
     d="M 12.497992,5.0002625 C 10.862048,4.980538 9.3811857,6.0768727 8.6550621,7.4980048 C 7.8124788,6.9672897 6.7279519,6.8302001 5.8146146,7.2701088 C 4.5218215,7.8001964 3.7071107,9.3198044 4.0935365,10.682625 C 2.1903641,11.829954 1.4460385,14.46553 2.4425715,16.444218 C 3.2090702,18.104446 5.0523494,19.125292 6.8640509,18.987618 C 9.8574317,18.97915 12.851645,19.004711 15.844495,18.974557 C 18.038122,18.857152 19.929236,16.918109 19.990558,14.723721 C 20.124432,12.775917 18.820815,10.85358 16.965787,10.24552 C 17.191352,7.887625 15.492199,5.3671499 13.070749,5.0404217 C 12.881089,5.013616 12.689537,5.0002515 12.497992,5.0002625 z" />
  <path
     style="opacity:0.7;fill:url(#linearGradient2388);fill-opacity:1;fill-rule:nonzero;stroke:none;stroke-width:1;stroke-linecap:butt;stroke-linejoin:miter;marker:none;marker-start:none;marker-mid:none;marker-end:none;stroke-miterlimit:4;stroke-dasharray:none;stroke-dashoffset:0;stroke-opacity:1;visibility:visible;display:inline;overflow:visible;enable-background:accumulate"
     id="rect3193"
     d="M 12.497992,4.0002621 C 10.862048,3.9805376 9.3811857,5.0768723 8.6550621,6.4980044 C 7.8124788,5.9672893 6.7279519,5.8301997 5.8146146,6.2701084 C 4.5218215,6.800196 3.7071107,8.3198041 4.0935365,9.6826254 C 2.1903641,10.829954 1.4460385,13.46553 2.4425715,15.444218 C 3.2090702,17.104446 5.0523494,18.125292 6.8640509,17.987618 C 9.8574317,17.97915 12.851645,18.004711 15.844495,17.974557 C 18.038122,17.857152 19.929236,15.918109 19.990558,13.723721 C 20.124432,11.775917 18.820815,9.8535804 16.965787,9.2455204 C 17.191352,6.8876246 15.492199,4.3671495 13.070749,4.0404213 C 12.881089,4.0136156 12.689537,4.0002511 12.497992,4.0002621 z" />
</svg>
